public/svg/zeplin.svg

<svg width="24" height="24" viewBox="0 0 24 24" fill="none" xmlns="http://www.w3.org/2000/svg">
<path fill-rule="evenodd" clip-rule="evenodd" d="M4.43873 15.6367L3.22984 16.0955L3.16406 19.8312L7.34984 18.2435C5.91428 17.7423 4.8654 16.8616 4.43873 15.6367Z" fill="#FDBD39"/>
<path fill-rule="evenodd" clip-rule="evenodd" d="M5.07064 11.686L0.875977 13.2793L3.22887 16.0965L4.43775 15.6377C4.01198 14.4174 4.27509 13.0374 5.07064 11.687V11.686Z" fill="#F69833"/>
<path fill-rule="evenodd" clip-rule="evenodd" d="M12.1297 6.29723C6.78746 8.32339 3.34391 12.5049 4.43813 15.6369L23.7821 8.29847C22.6888 5.16647 17.471 4.27108 12.1297 6.29723Z" fill="#FECF33"/>
<path fill-rule="evenodd" clip-rule="evenodd" d="M16.0909 17.638C21.4331 15.6119 24.882 11.4488 23.7825 8.29834L4.43848 15.6368C5.53803 18.7873 10.7496 19.6651 16.0909 17.638Z" fill="#EE6723"/>
<path fill-rule="evenodd" clip-rule="evenodd" d="M23.7825 8.29834L4.43848 15.6368C4.81714 16.7214 6.2607 17.2559 8.28825 17.2559C10.2643 17.2559 12.7931 16.7482 15.4305 15.7485C20.7727 13.7214 24.5309 10.4408 23.7825 8.29834Z" fill="#F69833"/>
<path fill-rule="evenodd" clip-rule="evenodd" d="M19.9326 6.6792C17.9566 6.6792 15.4269 7.18689 12.7904 8.18658C7.4482 10.2137 3.68998 13.4943 4.43753 15.6367L23.7824 8.29828C23.4038 7.21366 21.9593 6.6792 19.9326 6.6792Z" fill="#FDBD39"/>
<path fill-rule="evenodd" clip-rule="evenodd" d="M18.8638 20.0289C18.295 20.0289 17.455 19.4944 16.3678 18.4412C15.0816 17.196 13.6087 15.372 12.2203 13.3043C10.8318 11.2366 9.69051 9.17074 9.00695 7.48521C8.26295 5.64828 8.15629 4.51936 8.6914 4.12797C8.81507 4.04027 8.96213 3.99507 9.11184 3.99874C9.5474 3.99874 10.3954 4.33567 11.9643 5.93905L11.9981 5.97413L11.9936 6.02397L11.9643 6.37013L11.9465 6.59628L11.7927 6.43567C10.103 4.66705 9.35895 4.4769 9.11718 4.4769C9.06005 4.47352 9.0033 4.48833 8.95451 4.51936C8.7234 4.6892 8.7074 5.51905 9.42918 7.29874C10.1003 8.95474 11.2247 10.9901 12.5963 13.0311C13.967 15.0711 15.4167 16.8683 16.6798 18.0923C18.0416 19.4114 18.6558 19.5535 18.8558 19.5535C18.9148 19.5563 18.9731 19.5402 19.023 19.5074C19.2683 19.3292 19.2683 18.4403 18.463 16.524L18.4274 16.4354L18.5074 16.3892C18.5883 16.3431 18.6674 16.2987 18.7403 16.2554L18.8372 16.1981L18.8816 16.3043C19.4523 17.6621 19.9856 19.3883 19.2861 19.8987C19.1618 19.9865 19.0141 20.0317 18.8638 20.028V20.0289ZM18.8638 19.8194V19.9237V19.8194Z" fill="#EE6723"/>
<path fill-rule="evenodd" clip-rule="evenodd" d="M16.2199 17.5809L16.2119 17.6852C16.0768 19.4206 15.7212 21.5068 14.7941 21.5917C14.7752 21.5935 14.7562 21.5944 14.7372 21.5945C14.107 21.5945 13.5105 20.6575 12.9656 18.8086C12.4501 17.0603 12.0501 14.7129 11.8385 12.1985C11.6279 9.68493 11.6305 7.2997 11.8474 5.484C12.0839 3.50585 12.5336 2.472 13.1843 2.41293C13.2041 2.41106 13.224 2.41013 13.2439 2.41016C13.7008 2.41016 14.3888 2.94739 15.0936 5.44985L14.6332 5.54216C14.3985 4.70585 14.1416 4.02554 13.8865 3.55754C13.6519 3.12554 13.4225 2.88831 13.2421 2.88831H13.2243C12.9425 2.91416 12.531 3.62493 12.3025 5.54308C12.0892 7.32646 12.0865 9.67477 12.2954 12.1569C12.5034 14.6391 12.8972 16.9514 13.4039 18.6683C13.6305 19.4372 13.8794 20.0714 14.1239 20.5015C14.3488 20.8985 14.5665 21.1163 14.7372 21.1163C14.7431 21.1165 14.7491 21.1165 14.755 21.1163C15.0243 21.0914 15.5328 20.352 15.747 17.7498L16.2199 17.5809Z" fill="#EE6723"/>
</svg>

<svg xmlns="http://www.w3.org/2000/svg" width="24" height="24" fill="none" fill-rule="evenodd" xmlns:v="https://vecta.io/nano"><path d="M4.439 15.637l-1.209.459-.066 3.736 4.186-1.588c-1.436-.501-2.484-1.382-2.911-2.607z" fill="#fdbd39"/><path d="M5.071 11.686L.876 13.279l2.353 2.817 1.209-.459c-.426-1.22-.163-2.6.633-3.951v-.001z" fill="#f69833"/><path d="M12.13 6.297c-5.342 2.026-8.786 6.208-7.692 9.34l19.344-7.338c-1.093-3.132-6.311-4.027-11.652-2.001z" fill="#fecf33"/><path d="M16.091 17.638c5.342-2.026 8.791-6.189 7.692-9.34L4.438 15.637c1.1 3.15 6.311 4.028 11.652 2.001z" fill="#ee6723"/><path d="M23.783 8.298L4.438 15.637c.379 1.085 1.822 1.619 3.85 1.619 1.976 0 4.505-.508 7.142-1.507 5.342-2.027 9.1-5.308 8.352-7.45z" fill="#f69833"/><path d="M19.933 6.679c-1.976 0-4.506.508-7.142 1.507-5.342 2.027-9.1 5.308-8.353 7.45l19.345-7.338c-.379-1.085-1.823-1.619-3.85-1.619z" fill="#fdbd39"/><g fill="#ee6723"><path d="M18.864 20.029c-.569 0-1.409-.535-2.496-1.588-1.286-1.245-2.759-3.069-4.147-5.137s-2.53-4.134-3.213-5.819c-.744-1.837-.851-2.966-.316-3.357.124-.088.271-.133.42-.129.436 0 1.284.337 2.852 1.94l.034.035-.005.05-.029.346-.018.226-.154-.161c-1.69-1.769-2.434-1.959-2.676-1.959-.057-.003-.114.011-.163.042-.231.17-.247 1 .475 2.779.671 1.656 1.796 3.691 3.167 5.732s2.82 3.837 4.084 5.061c1.362 1.319 1.976 1.461 2.176 1.461a.28.28 0 0 0 .167-.046c.245-.178.245-1.067-.56-2.983l-.036-.089.08-.046.233-.134.097-.057.044.106c.571 1.358 1.104 3.084.405 3.594a.7.7 0 0 1-.422.129v.001zm0-.209v.104-.104z"/><path d="M16.22 17.581l-.008.104c-.135 1.735-.491 3.822-1.418 3.907l-.057.003c-.63 0-1.227-.937-1.772-2.786-.515-1.748-.915-4.096-1.127-6.61s-.208-4.899.009-6.714c.236-1.978.686-3.012 1.337-3.071l.06-.003c.457 0 1.145.537 1.85 3.04l-.46.092c-.235-.836-.492-1.517-.747-1.985-.235-.432-.464-.669-.644-.669h-.018c-.282.026-.693.737-.922 2.655-.213 1.783-.216 4.132-.007 6.614s.602 4.794 1.108 6.511c.227.769.476 1.403.72 1.833.225.397.443.615.613.615.287-.025.796-.764 1.01-3.366l.473-.169z"/></g></svg>
